X: 35752
T: Salamanca, The
R: reel
M: 4/4
K: Dmajor
dB|"D"AD (3FED AD (3FED|"D"Adcd fedc|"Em"BE~E2 BE~E2|"Em"Beed "A"cdeg|
"Bm"fB~B2 fB~B2|"Bm"fgfe dfag|"A"fdec "D"dBAG|"A7"FAEA "D"D2:|
|:fg|"D"afda "Em"bgeg|"D"fdcd "A7"BAFG|"D"Addc defg|(3aba gb "A7"a2fg|
"D"~a3f "A7"~g3e|"D"~f3e dfag|"D"fdec dBAG|"A7"FAEA "D"D2:|

